X:1
T:Title
%%score ( 1 2 ) ( 3 4 )
L:1/8
Q:1/4=90
M:2/4
K:G
V:1 treble nm="Grand Piano, Soprano"
V:2 treble 
V:3 bass nm="Choir Pad, Sing Alleluia!"
V:4 bass 
V:1
 [B,D][B,D] [B,D]2 | [B,E][B,E] [B,E]2 | [B,D][B,E] [B,G][B,E] | [CDF]4 | [CD][CD] [CD]2 | %5
w: By~Charles~Austin~Miles * *|||||
 [CE][CE] [CE]2 | [CDF][CDG] [CD^G][CDA] | [B,DB][B,DG] [B,D]2 | [B,D][B,D] [B,D]2 | %9
w: ||||
 [B,E][B,E] [B,E]2 | [B,D][B,E] [B,G][B,E] | [CDF]4 | [DA][D^G] [DA][DB] | [DA][DF] [DF][DF] | %14
w: |||||
 [^CE][CG] [CF][CE] |[M:4/4] z4 z [DFA] z2 | [DFA]D^CD BB-[DGB-][DGB] | .[DG]2 GF E^DEF | %18
w: ||||
 GFG[EA] [^DB]4 | z B_B=B dc-[DFAc-][DFAc] | [DFA]cBc ed-[DGBd-][DGBd] | %21
w: |||
 [DGB][Gd][Gd][Gd] [=Fd]2 [Ec]2 | [DB]2 [CA]2 [B,G]4- | [B,G]4 z4 |] %24
w: |||
V:2
 x4 | x4 | x4 | x4 | x4 | x4 | x4 | x4 | x4 | x4 | x4 | x4 | x4 | x4 | x4 | %15
[M:4/4] DD^CD cc-[DFAc-][DFAc] | z4 z [DG] z2 | x8 | x8 | z4 z [DFA] z2 | z4 z [DGB] z2 | x8 | x8 | %23
 x8 |] %24
V:3
 [G,,D,G,][G,,D,G,] [G,,D,G,]2 | [G,,D,G,][G,,D,G,] [G,,D,G,]2 | [G,,D,G,]2 [G,,D,G,]2 | %3
 [A,,D,F,A,][A,,D,F,A,] [A,,D,F,A,]2 | [D,F,A,][D,F,A,] [D,F,A,]2 | [D,F,A,][D,F,A,] [D,F,A,]2 | %6
 [D,F,A,]2 [D,F,A,]2 | [G,,D,G,][G,,D,G,] [G,,D,G,]2 | [G,,D,G,][G,,D,G,] [G,,D,G,]2 | %9
 [G,,D,G,][G,,D,G,] [G,,D,G,]2 | [G,,D,G,]2 [G,,D,G,]2 | [A,,D,F,A,][A,,D,F,A,] [A,,D,F,A,]2 | %12
 [D,F,A,]2 [D,F,A,]2 | [D,F,A,][D,F,A,] [D,F,A,]2 | [A,,E,A,][A,,E,A,] [A,,E,A,][A,,E,G,] | %15
[M:4/4] .[D,F,]2 z2 z [D,F,A,][D,F,A,][D,F,A,] | .[D,F,A,]2 z2 z [G,B,][G,B,][G,B,] | %17
 .[G,B,]2 G,F, E,^D,E,F, | G,F,G,[C,E,] [B,,F,]4 | z4 z C3 | %20
 [D,F,A,][K:treble]CB,C E[G,B,D][K:bass][G,B,D][G,B,D] | %21
 [G,B,D][G,B,][G,B,][G,B,] [B,,G,]2 [C,G,]2 | [D,G,]2 [D,F,]2 [G,,G,]4- | [G,,G,]4 z4 |] %24
V:4
 x4 | x4 | x4 | x4 | x4 | x4 | x4 | x4 | x4 | x4 | x4 | x4 | x4 | x4 | x4 |[M:4/4] x8 | x8 | x8 | %18
 x8 | z B,_B,=B, D[D,F,A,][D,F,A,][D,F,A,] | x[K:treble] x5[K:bass] x2 | x8 | x8 | x8 |] %24

